X:18357
T:Wake Up to Cape Breton
R:Reel
C:Brenda Stubbert
S:Tune of the Month. June,1998.
D:Fiddler's Chioce, Jerry Holland, 1998, Some Tasty Tunes, Brenda Stubbert, 1999
A:http://www.capebretonisland.com/Music/Stubbert
O:20th Century Cape Breton
N:Contacts ...
N:Recordings and bookings
N:..... <brenda@cranfordpub.com>
N:Tune books and related recordings
N:..... Cranford Publications <http://www.cranfordpub.com>
B:Previously Unpublished.
D:Jerry Holland, Fiddler's Choice
H:Copyrights:published by Stubbert Music (SOCAN)
Z:Paul Stewart Cranford - psc@cranfordpub.com
Q:333
L:1/8
M:C|
K:EMix
"E mixolydian"|:e|BEEF DEFD |E/E/E GB eBcA |BEEF DEFA|B2AF DEFA|BEEF DEFD|!
E/E/E GB eBcA |[1BEEF DEFD |B,A,B,D E/E/E E:|[2BEEF DEFA|(B/c/d) AF E/E/E E||!
K:EDor
|:"E dorian"f|eBBg efge| fdcd ABdf|eBBg efge|dBAF E/E/E Ef|!
eBBg efge| fdcd ABdf|gefd ecdA|(B/c/d) AF E/E/E E:|!


